svg/u1f446.svg

<svg viewBox="0 0 128 128" xmlns="http://www.w3.org/2000/svg">
  <linearGradient id="a" gradientTransform="matrix(-.0020953 1 1 .0020953 1464.4 -1461.3)" gradientUnits="userSpaceOnUse" x1="1469.9" x2="1586.5" y1="-1397.1" y2="-1397.1">
    <stop offset=".3533" stop-color="#FFCA28"/>
    <stop offset=".8723" stop-color="#FFB300"/>
  </linearGradient>
  <path d="m54.45 122.01c-1.15-0.01-2.14-0.81-2.4-1.93l-0.3-1.29c-1.48-6.37-5.2-12.04-10.75-16.42-1.19-0.94-2.21-2.06-3.04-3.33-4.44-6.85-6.89-12.87-9.25-18.69-2.23-5.51-4.34-10.71-7.93-16.08-0.8-1.2-1.38-4.5-0.5-7.14 0.56-1.7 1.62-2.84 3.14-3.37 1.22-0.43 2.33-0.64 3.39-0.64 3.77 0 7.07 2.81 10.71 9.12 3.89 6.73 4.13 8.5 4.14 8.57 0.03 0.81 0.69 1.43 1.5 1.43h0.02c0.82-0.01 1.47-0.7 1.48-1.52l0.12-57.07c0-2.08 1.26-7.99 6.85-7.99 6.58 0 8.79 5.73 8.79 8.34l-0.04 19.58c0 0.47 0.22 0.92 0.6 1.21 0.26 0.2 0.58 0.3 0.9 0.3 0.14 0 0.29-0.02 0.43-0.06 1.42-0.43 2.79-0.64 4.06-0.64 3.8 0 6.26 1.95 7.65 3.59 1.1 1.29 2.71 2.02 4.42 2.02 0.62 0 1.23-0.1 1.81-0.29 0.73-0.24 1.51-0.36 2.32-0.36 1.29 0 2.68 0.31 4.1 0.92 1.89 0.81 3.29 2.24 4.14 3.31 0.9 1.13 2.75 3.03 5 3.03 0.34 0 0.67-0.04 0.99-0.13 0.48-0.13 1.05-0.2 1.65-0.2 2.73 0 6.31 1.36 8.13 5.18 1.65 3.44 1.61 22.48 1.59 28.73-0.04 16.46-11.38 39.89-11.49 40.13-0.04 0.08-0.07 0.16-0.1 0.25-0.3 1.07-1.29 1.82-2.4 1.82l-39.73-0.38z" fill="url(#a)"/>
  <path d="m51.62 7.14c5.99 0 7.29 5.48 7.29 6.83l-0.04 19.59c0 0.95 0.45 1.84 1.21 2.41 0.52 0.39 1.15 0.59 1.79 0.59 0.29 0 0.58-0.04 0.86-0.13 1.28-0.39 2.5-0.58 3.63-0.58 2.59 0 4.78 1.03 6.51 3.06 1.38 1.62 3.41 2.55 5.56 2.55 0.78 0 1.54-0.12 2.28-0.36 0.58-0.19 1.2-0.29 1.86-0.29 1.09 0 2.27 0.27 3.51 0.8 1.6 0.68 2.81 1.93 3.55 2.86 1.07 1.34 3.29 3.59 6.17 3.59 0.47 0 0.94-0.06 1.39-0.19 0.34-0.09 0.79-0.15 1.26-0.15 2.28 0 5.25 1.14 6.78 4.33 0.68 1.43 1.49 7.46 1.45 28.08-0.03 16.1-11.23 39.24-11.34 39.47-0.08 0.16-0.14 0.33-0.19 0.5-0.12 0.43-0.52 0.73-0.98 0.73l-39.69-0.35c-0.46-0.01-0.86-0.32-0.96-0.77l-0.3-1.29c-1.56-6.7-5.46-12.67-11.29-17.25-1.06-0.84-1.97-1.84-2.71-2.97-4.37-6.73-6.78-12.68-9.12-18.44-2.26-5.58-4.4-10.85-8.07-16.35-0.45-0.68-1.11-3.48-0.32-5.84 0.56-1.67 1.53-2.19 2.22-2.43 1.06-0.38 2-0.56 2.89-0.56 2.13 0 5.13 0.95 9.41 8.37 3.27 5.67 3.86 7.65 3.94 8 0.12 1.5 1.34 2.69 2.87 2.76h0.12c1.56 0 2.87-1.2 2.99-2.76 0.01-0.08 0.01-0.17 0.01-0.26l0.12-57.07c-0.01-0.05 0.22-6.48 5.34-6.48m0-3c-6.34 0-8.35 6.34-8.35 9.49l-0.12 57.07v0.03-0.03c-0.01-0.24-0.21-2.09-4.33-9.23-3.86-6.69-7.57-9.87-12.01-9.87-1.23 0-2.53 0.25-3.89 0.73-5.76 2.05-5.06 10.25-3.39 12.76 7.26 10.88 8.43 21.3 17.17 34.76 1.01 1.55 2.18 2.75 3.37 3.69 5.03 3.96 8.77 9.34 10.22 15.58l0.3 1.29c0.42 1.79 2.01 3.07 3.85 3.09l39.69 0.35h0.04c1.79 0 3.36-1.19 3.85-2.91 0 0 11.61-23.79 11.64-40.78 0.02-11.55-0.14-26.04-1.74-29.38-2.16-4.52-6.37-6.03-9.49-6.03-0.76 0-1.46 0.09-2.05 0.25-0.2 0.05-0.4 0.08-0.6 0.08-1.44 0-2.9-1.3-3.82-2.46-1.05-1.32-2.62-2.85-4.72-3.75-1.78-0.76-3.35-1.04-4.69-1.04-1.08 0-2.01 0.18-2.79 0.43-0.44 0.14-0.89 0.21-1.35 0.21-1.24 0-2.45-0.53-3.28-1.5-1.64-1.93-4.46-4.11-8.79-4.11-1.35 0-2.84 0.21-4.49 0.71l0.04-19.59c0.02-3.16-2.61-9.84-10.27-9.84z" fill="#EDA600"/>
  <path d="m59.36 53.71-0.46-21.17 2.45 1.7c0.59 0 1.04 0.77 0.97 1.65l-0.77 17.84c-0.14 1.78-2.1 1.76-2.19-0.02z" fill="#EDA600"/>
  <path d="m43.2 78.73-2.81-6.97-0.94-2.47 3.32 0.87 3.23 0.94-0.09 7.48c0.01 1.38-2.15 1.24-2.71 0.15z" fill="#EDA600"/>
  <path d="m76.47 54.11-0.77-13.07c-0.05-0.59 2.52-0.25 2.52-0.25 0.59 0 1.04 0.53 0.97 1.13l-0.77 12.23c-0.13 1.21-1.85 1.18-1.95-0.04z" fill="#EDA600"/>
  <path d="m93.1 53.88-0.77-7.04c-0.05-0.32 2.52-0.13 2.52-0.13 0.59 0 1.04 0.28 0.97 0.61l-0.77 6.58c-0.14 0.65-1.86 0.63-1.95-0.02z" fill="#EDA600"/>
</svg>

<svg viewBox="0 0 128 128" xmlns="http://www.w3.org/2000/svg">
  <defs>
    <linearGradient id="a" gradientTransform="matrix(-0.002095 1 1 0.002095 0 0)" gradientUnits="userSpaceOnUse" x1="5.538072" x2="122.138072" y1="64.231722" y2="64.231722">
      <stop offset=".3533" stop-color="#FFCA28"/>
      <stop offset=".8723" stop-color="#FFB300"/>
    </linearGradient>
  </defs>
  <path d="M54.45,122.01 C53.3,122 52.31,121.2 52.05,120.08 L51.75,118.79 C50.27,112.42 46.55,106.75 41,102.37 C39.81,101.43 38.79,100.31 37.96,99.04 C33.52,92.19 31.07,86.17 28.71,80.35 C26.48,74.84 24.37,69.64 20.78,64.27 C19.98,63.07 19.4,59.77 20.28,57.13 C20.84,55.43 21.9,54.29 23.42,53.76 C24.64,53.33 25.75,53.12 26.81,53.12 C30.58,53.12 33.88,55.93 37.52,62.24 C41.41,68.97 41.65,70.74 41.66,70.81 C41.69,71.62 42.35,72.24 43.16,72.24 L43.18,72.24 C44,72.23 44.65,71.54 44.66,70.72 L44.78,13.65 C44.78,11.57 46.04,5.66 51.63,5.66 C58.21,5.66 60.42,11.39 60.42,14 L60.38,33.58 C60.38,34.05 60.6,34.5 60.98,34.79 C61.24,34.99 61.56,35.09 61.88,35.09 C62.02,35.09 62.17,35.07 62.31,35.03 C63.73,34.6 65.1,34.39 66.37,34.39 C70.17,34.39 72.63,36.34 74.02,37.98 C75.12,39.27 76.73,40 78.44,40 C79.06,40 79.67,39.9 80.25,39.71 C80.98,39.47 81.76,39.35 82.57,39.35 C83.86,39.35 85.25,39.66 86.67,40.27 C88.56,41.08 89.96,42.51 90.81,43.58 C91.71,44.71 93.56,46.61 95.81,46.61 C96.15,46.61 96.48,46.57 96.8,46.48 C97.28,46.35 97.85,46.28 98.45,46.28 C101.18,46.28 104.76,47.64 106.58,51.46 C108.23,54.9 108.19,73.94 108.17,80.19 C108.13,96.65 96.79,120.08 96.68,120.32 C96.64,120.4 96.61,120.48 96.58,120.57 C96.28,121.64 95.29,122.39 94.18,122.39 L54.45,122.01 Z" fill="url(#a)"/>
  <path d="M51.62,7.14 C57.61,7.14 58.91,12.62 58.91,13.97 L58.87,33.56 C58.87,34.51 59.32,35.4 60.08,35.97 C60.6,36.36 61.23,36.56 61.87,36.56 C62.16,36.56 62.45,36.52 62.73,36.43 C64.01,36.04 65.23,35.85 66.36,35.85 C68.95,35.85 71.14,36.88 72.87,38.91 C74.25,40.53 76.28,41.46 78.43,41.46 C79.21,41.46 79.97,41.34 80.71,41.1 C81.29,40.91 81.91,40.81 82.57,40.81 C83.66,40.81 84.84,41.08 86.08,41.61 C87.68,42.29 88.89,43.54 89.63,44.47 C90.7,45.81 92.92,48.06 95.8,48.06 C96.27,48.06 96.74,48 97.19,47.87 C97.53,47.78 97.98,47.72 98.45,47.72 C100.73,47.72 103.7,48.86 105.23,52.05 C105.91,53.48 106.72,59.51 106.68,80.13 C106.65,96.23 95.45,119.37 95.34,119.6 C95.26,119.76 95.2,119.93 95.15,120.1 C95.03,120.53 94.63,120.83 94.17,120.83 L54.48,120.48 C54.02,120.47 53.62,120.16 53.52,119.71 L53.22,118.42 C51.66,111.72 47.76,105.75 41.93,101.17 C40.87,100.33 39.96,99.33 39.22,98.2 C34.85,91.47 32.44,85.52 30.1,79.76 C27.84,74.18 25.7,68.91 22.03,63.41 C21.58,62.73 20.92,59.93 21.71,57.57 C22.27,55.9 23.24,55.38 23.93,55.14 C24.99,54.76 25.93,54.58 26.82,54.58 C28.95,54.58 31.95,55.53 36.23,62.95 C39.5,68.62 40.09,70.6 40.17,70.95 C40.29,72.45 41.51,73.64 43.04,73.71 L43.16,73.71 C44.72,73.71 46.03,72.51 46.15,70.95 C46.16,70.87 46.16,70.78 46.16,70.69 L46.28,13.62 C46.27,13.57 46.5,7.14 51.62,7.14 M51.62,4.14 C45.28,4.14 43.27,10.48 43.27,13.63 L43.15,70.7 L43.15,70.73 L43.15,70.7 C43.14,70.46 42.94,68.61 38.82,61.47 C34.96,54.78 31.25,51.6 26.81,51.6 C25.58,51.6 24.28,51.85 22.92,52.33 C17.16,54.38 17.86,62.58 19.53,65.09 C26.79,75.97 27.96,86.39 36.7,99.85 C37.71,101.4 38.88,102.6 40.07,103.54 C45.1,107.5 48.84,112.88 50.29,119.12 L50.59,120.41 C51.01,122.2 52.6,123.48 54.44,123.5 L94.13,123.85 L94.17,123.85 C95.96,123.85 97.53,122.66 98.02,120.94 C98.02,120.94 109.63,97.15 109.66,80.16 C109.68,68.61 109.52,54.12 107.92,50.78 C105.76,46.26 101.55,44.75 98.43,44.75 C97.67,44.75 96.97,44.84 96.38,45 C96.18,45.05 95.98,45.08 95.78,45.08 C94.34,45.08 92.88,43.78 91.96,42.62 C90.91,41.3 89.34,39.77 87.24,38.87 C85.46,38.11 83.89,37.83 82.55,37.83 C81.47,37.83 80.54,38.01 79.76,38.26 C79.32,38.4 78.87,38.47 78.41,38.47 C77.17,38.47 75.96,37.94 75.13,36.97 C73.49,35.04 70.67,32.86 66.34,32.86 C64.99,32.86 63.5,33.07 61.85,33.57 L61.89,13.98 C61.91,10.82 59.28,4.14 51.62,4.14 Z" fill="#EDA600"/>
  <path d="M59.36,53.71 L58.9,32.54 L61.35,34.24 C61.94,34.24 62.39,35.01 62.32,35.89 L61.55,53.73 C61.41,55.51 59.45,55.49 59.36,53.71 Z" fill="#EDA600"/>
  <path d="M43.2,78.73 L40.39,71.76 L39.45,69.29 L42.77,70.16 L46,71.1 L45.91,78.58 C45.92,79.96 43.76,79.82 43.2,78.73 Z" fill="#EDA600"/>
  <path d="M76.47,54.11 L75.7,41.04 C75.65,40.45 78.22,40.79 78.22,40.79 C78.81,40.79 79.26,41.32 79.19,41.92 L78.42,54.15 C78.29,55.36 76.57,55.33 76.47,54.11 Z" fill="#EDA600"/>
  <path d="M93.1,53.88 L92.33,46.84 C92.28,46.52 94.85,46.71 94.85,46.71 C95.44,46.71 95.89,46.99 95.82,47.32 L95.05,53.9 C94.91,54.55 93.19,54.53 93.1,53.88 Z" fill="#EDA600"/>
</svg>
